assets/images/bluetooth.svg

<svg width="40" height="40" viewBox="0 0 40 40" fill="none" xmlns="http://www.w3.org/2000/svg">
<g clip-path="url(#clip0_1283_11448)">
<path d="M39.988 17.356C39.9808 16.6392 39.9264 15.9152 39.8088 15.2088C38.7136 8.5992 32.5896 4.0088 25.9088 4.768C25.7304 4.7888 25.5504 4.792 25.3112 4.8072C25.3112 4.2128 25.3368 3.668 25.3056 3.1264C25.2384 1.9648 24.6936 1.0656 23.6896 0.4824C23.3184 0.2664 22.884 0.1576 22.4792 0H2.8808C2.8728 0.0048 2.8648 0.0104 2.8576 0.0152C2.8488 0.0216 2.83921 0.0272 2.83041 0.032C2.82401 0.0352 2.81841 0.0376 2.81201 0.0392C0.862412 0.564 0.00160156 1.6856 0.00160156 3.704V22.02C0.00160156 26.8584 0.004 31.6976 0 36.5368C0 36.5992 0.000803906 36.6608 0.00400391 36.7224C0.00480391 36.752 0.00640859 36.7824 0.00880859 36.812C0.0104086 36.8416 0.0128148 36.8704 0.0152148 36.9008C0.0160148 36.916 0.0175992 36.9312 0.0191992 36.9464C0.0247992 36.9992 0.0303977 37.0512 0.0375977 37.1024C0.0375977 37.1048 0.0375977 37.1064 0.0375977 37.1088C0.0439977 37.1512 0.0503984 37.1936 0.0583984 37.236C0.0591984 37.2416 0.0600008 37.2464 0.0608008 37.252C0.0656008 37.2776 0.0704148 37.3024 0.0752148 37.3272C0.0752148 37.3296 0.0751969 37.332 0.0767969 37.3344C0.0767969 37.336 0.0767969 37.3376 0.0767969 37.3392C0.0823969 37.3648 0.0872133 37.3896 0.0936133 37.4144C0.104013 37.4616 0.116009 37.5096 0.129609 37.5568C0.136809 37.584 0.144812 37.6112 0.152812 37.6384C0.157612 37.6528 0.162407 37.668 0.167207 37.6824C0.172807 37.7016 0.179205 37.7208 0.185605 37.7392C0.203205 37.792 0.222403 37.8448 0.243203 37.8968C0.262403 37.9456 0.283205 37.9944 0.305605 38.0424C0.316005 38.0648 0.325597 38.0872 0.336797 38.1096C0.347197 38.132 0.358409 38.1536 0.369609 38.1752C0.380009 38.196 0.391202 38.2168 0.402402 38.2376C0.413602 38.2584 0.424816 38.2792 0.436016 38.2992C0.437616 38.3016 0.4384 38.304 0.44 38.3064C0.4536 38.3304 0.467202 38.3536 0.481602 38.3768C0.504802 38.4152 0.529614 38.4536 0.554414 38.4912C0.569614 38.5152 0.585602 38.5384 0.602402 38.5616C0.619202 38.5864 0.637615 38.6112 0.655215 38.6352C0.671215 38.6568 0.688005 38.6784 0.704805 38.7C0.722405 38.7232 0.7416 38.7472 0.76 38.7704C0.7632 38.7736 0.765609 38.7776 0.768809 38.7808C0.770409 38.7824 0.771212 38.784 0.772812 38.7856C0.772812 38.7872 0.775216 38.788 0.776016 38.7896C0.777616 38.7912 0.7784 38.7928 0.78 38.7944C0.7808 38.7944 0.781603 38.7968 0.783203 38.7976C0.797603 38.8152 0.812007 38.8328 0.827207 38.8496C0.842407 38.8664 0.857612 38.884 0.872812 38.9008C0.912812 38.9448 0.953616 38.988 0.996016 39.0304C1.04082 39.076 1.08802 39.1208 1.13602 39.1648C1.19842 39.2216 1.26241 39.2752 1.32801 39.3248C1.38641 39.3688 1.44561 39.4104 1.50641 39.4488C1.50721 39.4488 1.50881 39.4504 1.50961 39.4504C1.53841 39.4688 1.56641 39.4864 1.59521 39.5032C1.62161 39.5192 1.64801 39.5344 1.67521 39.5488C1.67681 39.5504 1.6784 39.5512 1.68 39.552C1.684 39.5544 1.68881 39.5568 1.69361 39.5592C1.72241 39.5752 1.7512 39.5904 1.7808 39.6048C1.8096 39.62 1.83841 39.6344 1.86801 39.648C1.88481 39.6552 1.9016 39.6632 1.9176 39.6712C1.9344 39.6792 1.95121 39.6864 1.96801 39.6936C2.00081 39.708 2.03441 39.7224 2.06881 39.7368C2.14321 39.7672 2.21841 39.796 2.29521 39.8232C2.37201 39.8496 2.44881 39.8752 2.52641 39.8992C2.58481 39.9176 2.6432 39.9344 2.7024 39.9512C2.7608 39.968 2.82 39.984 2.8792 40H22.4776C22.6272 39.952 22.7752 39.8992 22.9264 39.8568C24.1984 39.5 25.148 38.3848 25.2936 37.0728C25.3136 36.892 25.328 36.7104 25.3416 36.5592C25.396 36.5264 25.4072 36.5128 25.4176 36.5136C25.484 36.5184 25.5496 36.5248 25.6152 36.5336C28.4264 36.9128 31.1064 36.4784 33.5568 35.0472C37.7528 32.5952 39.8816 28.8824 39.9864 24.032C40.0344 21.8072 40.0088 19.5808 39.9864 17.356H39.988ZM22.08 38.656C21.9336 38.6632 21.7872 38.66 21.6408 38.66C15.6416 38.6608 9.6432 38.6608 3.644 38.66C2.0896 38.66 1.3416 37.9104 1.3416 36.3528C1.3408 25.4464 1.3408 14.5408 1.3416 3.6344C1.3416 2.0976 2.0928 1.3392 3.6168 1.3392C9.6424 1.3392 15.668 1.3384 21.6928 1.3392C23.2456 1.3392 23.9944 2.0912 23.996 3.6472C23.996 4.0472 23.9864 4.448 23.9992 4.8472C24.0056 5.0552 23.936 5.1576 23.7272 5.2112C23.3944 5.2968 23.0696 5.4176 22.66 5.5504V4.3032C22.6592 3.1352 22.1832 2.6632 21.0064 2.6624C20.4736 2.6616 19.94 2.6544 19.4072 2.664C18.5456 2.68 18.024 3.2096 18.0024 4.0752C17.972 5.2848 17.9272 5.3288 16.7192 5.3288C13.92 5.3288 11.1208 5.3288 8.3208 5.328C7.5136 5.328 7.3408 5.152 7.3392 4.34C7.336 3.132 6.872 2.6632 5.6776 2.6624C5.1576 2.6616 4.6376 2.6568 4.1176 2.6632C3.2096 2.6744 2.67281 3.204 2.66561 4.1072C2.65681 5.0808 2.6632 6.0544 2.6632 7.0272C2.6632 16.5864 2.66161 26.1456 2.67121 35.7056C2.67121 36.0272 2.7224 36.3824 2.864 36.6648C3.1304 37.1944 3.63441 37.3432 4.21041 37.3424C7.66321 37.3344 11.116 37.3384 14.5688 37.3384H20.8072C22.148 37.3384 22.4408 37.1056 22.7136 35.796C23.092 35.9176 23.4712 36.0288 23.8408 36.1664C23.912 36.1928 23.9792 36.3184 23.9896 36.4048C24.128 37.5808 23.2616 38.5976 22.08 38.656ZM14.6808 23.9744C14.772 28.7816 16.8968 32.4456 20.9984 34.944C21.4624 35.2272 21.3104 35.5744 21.3248 35.9848H4.02881V4.0216H6.00641C6.00641 4.2536 6.00081 4.4752 6.00721 4.696C6.03761 5.788 6.84321 6.6424 7.93041 6.6488C11.0888 6.6672 14.248 6.6664 17.4064 6.6488C18.4176 6.6432 19.192 5.8944 19.3088 4.888C19.3408 4.612 19.3416 4.3336 19.3584 4.0272H21.336C21.336 4.7 21.3488 5.3752 21.3232 6.0496C21.3192 6.1504 21.156 6.272 21.0408 6.3392C18.7688 7.6696 17.0496 9.5112 15.9048 11.884C15.0672 13.6184 14.6736 15.4536 14.6736 17.376C14.672 19.5752 14.6392 21.7752 14.6808 23.9744ZM38.5544 25.3928C38.1792 29.6552 34.8248 33.6592 30.6904 34.816C26.316 36.0392 22.4448 35.1032 19.2176 31.8864C17.1624 29.8392 16.0864 27.2976 16.0208 24.388C15.9648 21.9232 15.98 19.456 16.0144 16.9904C16.0864 11.7096 20.164 7.0168 25.3848 6.164C30.8536 5.2712 35.9888 8.2224 37.9632 13.4032C38.3984 14.5464 38.6288 15.7368 38.6464 16.96C38.664 18.1992 38.6504 19.4392 38.6504 20.6792C38.6664 20.6792 38.6824 20.6792 38.6984 20.6792C38.6552 22.2504 38.692 23.8288 38.5544 25.392V25.3928Z" fill="#3F51B5"/>
<path d="M32.5696 25.024C31.9992 24.5032 31.4168 23.9952 30.8392 23.4816C29.7952 22.5536 28.7496 21.6256 27.6808 20.6768C27.7976 20.5664 27.8912 20.4752 27.988 20.388C29.5096 19.032 31.0344 17.6792 32.5528 16.3192C33.2368 15.7072 33.224 14.9376 32.536 14.3688C31.0568 13.1472 29.5752 11.9288 28.1 10.7032C27.6672 10.344 27.204 10.164 26.6664 10.4272C26.1488 10.68 25.9944 11.1288 25.9968 11.684C26.008 14.016 26.0024 16.348 26.0008 18.6808C26.0008 18.82 25.9888 18.9584 25.9776 19.184C25.8056 19.0424 25.6952 18.9544 25.5888 18.8624C24.5664 17.988 23.5464 17.1104 22.5208 16.2392C22.1712 15.9416 21.7776 15.9504 21.5256 16.2392C21.26 16.5456 21.3144 16.9544 21.6672 17.2592C22.1616 17.6856 22.66 18.1064 23.156 18.5312C23.9728 19.232 24.788 19.9344 25.6392 20.6664C24.9824 21.2304 24.3592 21.7664 23.7352 22.3016C23.0176 22.9176 22.2944 23.528 21.584 24.152C21.2752 24.4224 21.2448 24.8424 21.4808 25.1168C21.7064 25.3792 22.0976 25.4048 22.4216 25.1752C22.4976 25.1208 22.5672 25.0576 22.6376 24.9968C23.648 24.1288 24.6576 23.26 25.6688 22.3928C25.7528 22.3216 25.852 22.268 26.0016 22.1664V22.676C26.0016 24.9952 26.0088 27.3144 25.9968 29.6328C25.9944 30.2024 26.1496 30.6608 26.6872 30.9184C27.216 31.172 27.6648 30.9864 28.0832 30.6392C29.56 29.416 31.0432 28.1992 32.5192 26.9744C33.2224 26.3904 33.2416 25.6368 32.5696 25.0232V25.024ZM27.8952 12.2704C28.9712 13.1568 30.0224 14.0216 31.0976 14.9072C31.2768 15.0544 31.4568 15.2024 31.6376 15.3512L31.6368 15.352C31.3488 15.6088 31.0616 15.864 30.7752 16.1192C29.9144 16.8848 29.056 17.6504 28.1744 18.4344C27.9936 18.5952 27.8128 18.7568 27.6304 18.9192C27.5392 19.0008 27.4472 19.0824 27.3552 19.164V11.8256C27.536 11.9744 27.716 12.1224 27.8952 12.2704ZM27.9008 29.0592C27.7192 29.2088 27.5376 29.3584 27.3544 29.5088V22.1728C27.4 22.2136 27.4456 22.2536 27.4912 22.2944C27.8096 22.5776 28.1248 22.8576 28.4384 23.136C29.5128 24.0912 30.5648 25.0264 31.6392 25.9808C30.3888 27.0104 29.1672 28.016 27.9008 29.0592Z" fill="#3F51B5"/>
<path d="M5.96771 14.776C5.74771 14.5864 5.5165 14.4616 5.3973 14.268C5.2349 14.0048 5.33412 13.7288 5.55492 13.508C6.30772 12.7544 7.05971 11.9984 7.81251 11.244C8.78211 10.2736 9.75331 9.3032 10.7229 8.3336C10.7509 8.3056 10.7781 8.276 10.8085 8.2496C11.1413 7.9536 11.5437 7.944 11.8101 8.2248C12.0573 8.4856 12.0405 8.892 11.7437 9.1952C11.0909 9.8608 10.4277 10.5168 9.76851 11.1768C8.72291 12.2232 7.68211 13.2728 6.62851 14.3112C6.45731 14.48 6.23171 14.5936 5.96771 14.7768V14.776Z" fill="#3F51B5"/>
<path d="M7.40216 7.97199C7.55656 8.09359 7.81017 8.19999 7.89097 8.38319C7.97177 8.56639 7.96697 8.90079 7.84857 9.03839C7.39017 9.57039 6.88776 10.0696 6.36616 10.5408C6.12936 10.7544 5.80936 10.7168 5.56376 10.492C5.30776 10.2576 5.21576 9.92559 5.44376 9.66879C5.92696 9.12319 6.46377 8.62479 6.99017 8.11919C7.06777 8.04479 7.20936 8.03759 7.40216 7.97199Z" fill="#3F51B5"/>
<path d="M14.311 3.9952C13.9926 3.9952 13.6734 4.0048 13.3558 3.9928C12.9534 3.9776 12.6862 3.7232 12.6686 3.3624C12.651 2.9904 12.9222 2.6832 13.3366 2.6712C13.999 2.6512 14.6638 2.6528 15.3262 2.6712C15.731 2.6824 16.0134 2.9984 15.9958 3.3632C15.979 3.7184 15.703 3.9712 15.3062 3.996C15.2798 3.9976 15.2534 3.9976 15.227 3.9976C14.9222 3.9976 14.6166 3.9976 14.3118 3.9968L14.311 3.9952Z" fill="#3F51B5"/>
<path d="M10.2839 4.00401C10.1383 3.99521 9.98873 4.00641 9.84873 3.97281C9.52393 3.89601 9.35273 3.67121 9.34793 3.34161C9.34313 3.03201 9.48154 2.76641 9.79434 2.71921C10.1423 2.66641 10.5095 2.66161 10.8567 2.71361C11.1815 2.76321 11.3415 3.03841 11.3271 3.36161C11.3127 3.68481 11.1263 3.90961 10.8007 3.97521C10.6335 4.00881 10.4575 3.99521 10.2847 4.00321L10.2839 4.00401Z" fill="#3F51B5"/>
</g>
<defs>
<clipPath id="clip0_1283_11448">
<rect width="40" height="40" fill="white"/>
</clipPath>
</defs>
</svg>

<svg xmlns="http://www.w3.org/2000/svg" width="40" height="40" fill="none" xmlns:v="https://vecta.io/nano"><g clip-path="url(#A)" fill="#3f51b5"><path d="M39.988 17.356a14.02 14.02 0 0 0-.179-2.147c-1.095-6.61-7.219-11.2-13.9-10.441-.178.021-.358.024-.598.039 0-.594.026-1.139-.006-1.681A3.11 3.11 0 0 0 23.69.482C23.319.266 22.884.157 22.48 0H2.881a.46.46 0 0 0-.023.015.25.25 0 0 1-.027.017C.862.564.002 1.686.002 3.704V22.02L0 36.537a3.57 3.57 0 0 0 .004.186 1.68 1.68 0 0 0 .005.09l.006.089a.78.78 0 0 0 .004.046l.018.156a2.11 2.11 0 0 0 .021.134l.017.091a1.57 1.57 0 0 0 .018.087 2.32 2.32 0 0 0 .036.142c.007.027.015.054.023.082l.014.044a1.18 1.18 0 0 0 .018.057 2.86 2.86 0 0 0 .058.158 2.57 2.57 0 0 0 .062.146c.01.022.02.045.031.067l.033.066a2.34 2.34 0 0 0 .033.062l.034.062.046.078a2.75 2.75 0 0 0 .073.114c.015.024.031.047.048.07l.053.074.05.065.055.07c.013.017.015.018.016.019l.051.06.046.051a3.75 3.75 0 0 0 .123.13 3.73 3.73 0 0 0 .14.134 2.75 2.75 0 0 0 .192.16c.058.044.118.086.178.124l.089.054c.026.016.053.031.08.046.009.006.014.008.018.01a3.65 3.65 0 0 0 .087.046 1.75 1.75 0 0 0 .087.043.94.94 0 0 1 .05.023c.017.008.034.015.05.022l.101.043a5.09 5.09 0 0 0 .226.086l.231.076.176.052.177.049h19.598c.15-.048.298-.101.449-.143a3.29 3.29 0 0 0 2.367-2.784c.02-.181.034-.362.048-.514.054-.033.066-.046.076-.046a3.24 3.24 0 0 1 .198.02c2.811.379 5.491-.055 7.942-1.486 4.196-2.452 6.325-6.165 6.43-11.015.048-2.225.022-4.451 0-6.676h.002zm-17.908 21.3c-.146.007-.293.004-.439.004H3.644c-1.554 0-2.302-.75-2.302-2.307V3.634c0-1.537.751-2.295 2.275-2.295h18.076c1.553 0 2.302.752 2.303 2.308l.003 1.2c.006.208-.063.31-.272.364-.333.086-.658.206-1.067.339V4.303c-.001-1.168-.477-1.64-1.654-1.641-.533-.001-1.066-.008-1.599.002-.862.016-1.383.546-1.405 1.411-.03 1.21-.075 1.254-1.283 1.254-2.799 0-5.598 0-8.398-.001-.807 0-.98-.176-.982-.988-.003-1.208-.467-1.677-1.662-1.678-.52-.001-1.04-.006-1.56.001-.908.011-1.445.541-1.452 1.444l-.002 2.92.008 28.678c0 .322.051.677.193.959.266.53.77.678 1.346.678l10.358-.004h6.238c1.341 0 1.634-.233 1.906-1.542.378.122.758.233 1.127.37.071.026.138.152.149.238.138 1.176-.728 2.193-1.91 2.251zm-7.399-14.682c.091 4.807 2.216 8.471 6.318 10.97.464.283.312.63.326 1.041H4.029V4.022h1.978l.001.674c.03 1.092.836 1.946 1.923 1.953h9.476c1.011-.006 1.786-.754 1.902-1.761.032-.276.033-.554.05-.861h1.978c0 .673.013 1.348-.013 2.022-.004.101-.167.222-.282.29-2.272 1.33-3.991 3.172-5.136 5.545-.838 1.734-1.231 3.57-1.231 5.492l.007 6.598zm23.874 1.418c-.375 4.262-3.73 8.266-7.864 9.423-4.374 1.223-8.246.287-11.473-2.93-2.055-2.047-3.131-4.589-3.197-7.498-.056-2.465-.041-4.932-.006-7.398.072-5.281 4.15-9.974 9.37-10.826 5.469-.893 10.604 2.058 12.578 7.239.435 1.143.666 2.334.683 3.557l.004 3.719h.048c-.043 1.571-.006 3.15-.144 4.713v.001zm-5.985-.368l-1.73-1.542-3.158-2.805.307-.289 4.565-4.069c.684-.612.671-1.382-.017-1.95L28.1 10.703c-.433-.359-.896-.539-1.434-.276-.518.253-.672.702-.67 1.257L26 18.681l-.023.503-.389-.322-3.068-2.623c-.35-.298-.743-.289-.995 0-.266.306-.211.715.142 1.02l1.489 1.272 2.483 2.135-1.904 1.635-2.151 1.85c-.309.27-.339.69-.103.965.226.262.617.288.941.058.076-.054.146-.118.216-.178l3.031-2.604c.084-.071.183-.125.333-.226v.51l-.005 6.957c-.002.57.153 1.028.69 1.286.529.254.978.068 1.396-.279l4.436-3.665c.703-.584.722-1.338.05-1.951v.001zM27.895 12.27l3.202 2.637.54.444-.001.001-.862.767-2.601 2.315-.544.485-.275.245v-7.338l.54.445zm.006 16.789l-.546.45v-7.336l.137.122.947.842 3.201 2.845-3.738 3.078zM5.968 14.776c-.22-.19-.451-.314-.57-.508-.162-.263-.063-.539.158-.76l2.258-2.264 2.91-2.91.086-.084c.333-.296.735-.306 1.002-.025.247.261.23.667-.066.97l-1.975 1.982-3.14 3.134c-.171.169-.397.282-.661.466v-.001zm1.434-6.804c.154.122.408.228.489.411s.076.518-.042.655a16.95 16.95 0 0 1-1.482 1.502c-.237.214-.557.176-.802-.049-.256-.234-.348-.566-.12-.823.483-.546 1.02-1.044 1.546-1.55.078-.074.219-.082.412-.147zm6.909-3.977c-.318 0-.638.01-.955-.002-.402-.015-.67-.27-.687-.63-.018-.372.254-.679.668-.691h1.99c.405.011.687.327.67.692-.017.355-.293.608-.69.633l-.079.002c-.305 0-.61 0-.915-.001l-.001-.002zm-4.027.009c-.146-.009-.295.002-.435-.031-.325-.077-.496-.302-.501-.631-.005-.31.134-.575.446-.622a3.61 3.61 0 0 1 1.062-.006c.325.05.485.325.47.648s-.201.548-.526.614c-.167.034-.343.02-.516.028l-.001.001z"/></g><defs><clipPath id="A"><path fill="#fff" d="M0 0h40v40H0z"/></clipPath></defs></svg>
